portfolio/adventure/img/svg/facebook.svg

<svg xmlns="http://www.w3.org/2000/svg" width="9" height="17"><path d="M8.088.132v2.732s-2.049-.201-2.562.57c-.28.422-.114 1.657-.138 2.544h2.717c-.23 1.036-.395 1.738-.563 2.636h-2.17V17.1H1.608c.001-2.616 0-5.668 0-8.453H.007V5.978h1.584c.081-1.952.111-3.887 1.098-4.872C3.798-.001 4.856.132 8.088.132z" fill-rule="evenodd"/></svg>

<svg xmlns="http://www.w3.org/2000/svg" xmlns:xlink="http://www.w3.org/1999/xlink" preserveaspectratio="xMidYMid" width="9" height="17" viewbox="0 0 9 17">
  <defs>
  </defs>
  <path d="M8.088,0.132 C8.088,1.110 8.088,2.864 8.088,2.864 C8.088,2.864 6.039,2.663 5.526,3.434 C5.246,3.856 5.412,5.091 5.388,5.978 C6.282,5.978 7.211,5.978 8.105,5.978 C7.875,7.014 7.710,7.716 7.542,8.614 C6.768,8.614 5.372,8.614 5.372,8.614 C5.372,8.614 5.372,17.100 5.372,17.100 C5.372,17.100 2.812,17.100 1.608,17.100 C1.609,14.484 1.608,11.432 1.608,8.647 C1.024,8.647 0.591,8.647 0.007,8.647 C0.007,7.669 0.007,6.956 0.007,5.978 C0.574,5.978 1.023,5.978 1.591,5.978 C1.672,4.026 1.702,2.091 2.689,1.106 C3.798,-0.001 4.856,0.132 8.088,0.132 Z" id="facebook" fill-rule="evenodd"/>
</svg>
